X: 35826
T: Saltón De Meres
R: reel
M: 4/4
K: Dmajor
|:dfed cABc|ABde fedA|dfed cABc|1 ABde d4:|2 ABde d2dc||
|:Bdgd Adfa|gfed ecdc|Bdgd Adfd|1 ABde d2dc:|2 ABde d4||

